X:1
T:Title
%%score { ( 1 3 4 ) | ( 2 5 ) }
L:1/8
M:4/4
K:Bb
V:1 treble nm="Grand Piano"
V:3 treble 
V:4 treble 
V:2 bass 
V:5 bass 
V:1
 z4 z2 z[Q:1/4=106] B | d2 F2 z2 z B | z4 B4 | GABc B2 G2 | F6 z2 | z4 F4 | G2 D2 z2 z F | %7
 GABc [=Ed]2 [Fc]2 |[M:7/8] [Ec]-[Ec]-[Ec]- [Ec]3 z |[M:1/8] z | %10
[M:4/4] [B,DG][B,DG][B,DG][B,DG] z2 z F | [DFd]2 [DFd]2 z2 z F | [B,DG][B,DG][B,DG][B,DG] z2 z F | %13
 [EAe]2 [EAe]2 z2 z c | [FAe][FAe][FAe][FAe] z2 z c | z4 [FB]4 | .c2 z2 z4 | %17
[M:7/8] [DB]-[DB]-[DB]- [DB]3[K:bass] z |] %18
V:2
 z8 | B,,2 [F,B,D]2 [F,B,D]2 [F,B,]2 | B,,2 [F,B,D]2 [F,B,D]2 [F,B,]2 | %3
 E,2 [G,B,E]2 [G,B,E]2 [G,B,E]2 | B,,2 [F,B,]2 [F,B,]2 z2 | C,2 [E,F,A,]2 F,,2 [E,F,]2 | %6
 B,,2 [D,F,B,]2 D,2 F,2 | E,2 [G,B,]2 [C,B,]2 [C,B,]2 |[M:7/8] [F,A,]2 E,2 D,2 C, |[M:1/8] F | %10
[M:4/4] [B,,F,]2 [F,,F,]2 [B,,F,]2 F,,2 | [B,,F,]2 [F,,F,]2 [B,,F,]2 F,,2 | %12
 [B,,F,]2 [F,,F,]2 [B,,F,]2 F,,2 | [C,F,]2 [F,,F,]2 [C,F,]2 F,,2 | [C,C]2 [A,,A,]2 [F,,F,]2 E,,2 | %15
 [D,,D,]2 [F,,F,]2 B,,2 z[K:treble] B | C,2 [G,B,=E]2 [F,B,F]2 [F,A,_E]2 | %17
[M:7/8] [B,,B,]2 F,,2 B,,,2 z |] %18
V:3
 x8 | z4 B4 | d2 F2 z2 z F | x8 | z2 D2 D2 z F | G2 C2 z2 z F | z4 F4 | x8 |[M:7/8] x7 |[M:1/8] x | %10
[M:4/4] z4 [B,DG]4 | z4 [DFd]4 | z4 [B,DG]4 | z4 [EAe]4 | z4 [FAe]4 | [FBf]2 [FBd]2 [B,D]2 D2 | %16
 [C=E]-[CEG]AB d2 c2 |[M:7/8] z2 F,2[K:bass] B,,2 z |] %18
V:4
 x8 | z4 z2 D2 | z4 z2 D2 | x8 | x8 | z4 z2 A,2 | z4 z2 B,2 | x8 |[M:7/8] x7 |[M:1/8] x | %10
[M:4/4] z4 z2 F,2 | z4 z2 F,2 | z4 z2 F,2 | z4 z2 F,2 | z4 z2 E,2 | x8 | x8 | %17
[M:7/8] x4[K:bass] x3 |] %18
V:5
 x8 | x8 | x8 | x8 | x8 | x8 | x8 | x8 |[M:7/8] x7 |[M:1/8] x |[M:4/4] x8 | x8 | x8 | x8 | x8 | %15
 z4 z2 D,2[K:treble] | x8 |[M:7/8] x7 |] %18

